svgs/regular/square-poll-horizontal.svg

<svg xmlns="http://www.w3.org/2000/svg" viewBox="0 0 448 512"><!-- Font Awesome Pro 6.0.0-alpha2 by @fontawesome - https://fontawesome.com License - https://fontawesome.com/license (Commercial License) --><path d="M448 416V96C448 60.654 419.348 32 384 32H64C28.654 32 0 60.654 0 96V416C0 451.346 28.654 480 64 480H384C419.348 480 448 451.346 448 416ZM64 432C55.164 432 48 424.836 48 416V96C48 87.164 55.164 80 64 80H384C392.838 80 400 87.164 400 96V416C400 424.836 392.838 432 384 432H64ZM352 256C352 242.75 341.25 232 328 232H120C106.75 232 96 242.75 96 256S106.75 280 120 280H328C341.25 280 352 269.25 352 256ZM192 352C192 338.75 181.25 328 168 328H120C106.75 328 96 338.75 96 352S106.75 376 120 376H168C181.25 376 192 365.25 192 352ZM256 160C256 146.75 245.25 136 232 136H120C106.75 136 96 146.75 96 160S106.75 184 120 184H232C245.25 184 256 173.25 256 160Z"/></svg>

<svg xmlns="http://www.w3.org/2000/svg" viewBox="0 0 448 512"><!--! Font Awesome Pro 6.0.0-alpha3 by @fontawesome - https://fontawesome.com License - https://fontawesome.com/license (Commercial License) --><path d="M448 416v-320c0-35.35-28.65-63.1-64-63.1H64c-35.35 0-64 28.65-64 63.1v320c0 35.35 28.65 64 64 64h320C419.3 480 448 451.3 448 416zM64 432c-8.836 0-16-7.164-16-16V96c0-8.836 7.164-16 16-16h320c8.838 0 16 7.164 16 16v320c0 8.836-7.162 16-16 16H64zM352 256c0-13.25-10.75-24-24-24h-208C106.8 232 96 242.8 96 256s10.75 24 24 24h208C341.3 280 352 269.3 352 256zM192 352c0-13.25-10.75-24-24-24h-48C106.8 328 96 338.8 96 352s10.75 24 24 24h48C181.3 376 192 365.3 192 352zM256 160c0-13.25-10.75-24-24-24h-112C106.8 136 96 146.8 96 160s10.75 24 24 24h112C245.3 184 256 173.3 256 160z"/></svg>
